src/assets/svg/images.svg

<!-- Generated by IcoMoon.io -->
<svg version="1.1" xmlns="http://www.w3.org/2000/svg" width="36" height="32" viewBox="0 0 36 32">
<title>images</title>
<path d="M34 4h-2v-2c0-1.1-0.9-2-2-2h-28c-1.1 0-2 0.9-2 2v24c0 1.1 0.9 2 2 2h2v2c0 1.1 0.9 2 2 2h28c1.1 0 2-0.9 2-2v-24c0-1.1-0.9-2-2-2zM4 6v20h-1.996c-0.001-0.001-0.003-0.002-0.004-0.004v-23.993c0.001-0.001 0.002-0.003 0.004-0.004h27.993c0.001 0.001 0.003 0.002 0.004 0.004v1.996h-24c-1.1 0-2 0.9-2 2v0zM34 29.996c-0.001 0.001-0.002 0.003-0.004 0.004h-27.993c-0.001-0.001-0.003-0.002-0.004-0.004v-23.993c0.001-0.001 0.002-0.003 0.004-0.004h27.993c0.001 0.001 0.003 0.002 0.004 0.004v23.993z"></path>
<path d="M30 11c0 1.657-1.343 3-3 3s-3-1.343-3-3 1.343-3 3-3 3 1.343 3 3z"></path>
<path d="M32 28h-24v-4l7-12 8 10h2l7-6z"></path>
</svg>

<svg xmlns="http://www.w3.org/2000/svg" viewBox="0 0 36 32">
  <path d="M34 4h-2V2a2 2 0 0 0-2-2H2a2 2 0 0 0-2 2v24c0 1.1.9 2 2 2h2v2c0 1.1.9 2 2 2h28a2 2 0 0 0 2-2V6a2 2 0 0 0-2-2zM4 6v20H2V2h28v2H6a2 2 0 0 0-2 2zm30 24H6V6h28v24z"/>
  <path d="M30 11a3 3 0 1 1-6 0 3 3 0 0 1 6 0zM32 28H8v-4l7-12 8 10h2l7-6z"/>
</svg>
